X:1796
T:Bounce,The. HSJJ.075
M:2/4
L:1/8
Q:200
S:HSJ Jackson,Wyresdale,Lancs.1823
R:Misc.
O:England
A:Lancashire
H:1823
Z:Chris Partington.
K:C
eGcG|eGcG|fedc|B2B2|eGcG|eGcG|fdBd|c2c2:|!
|:gceA|acgc|gfef|d2d2|gcec|gcec|gabg|c'2c'2:|]


